X: 119
T:Inches to Dublin
R:reel
C:Padraig Rynne
D:Cian: Three Shouts from a Hill
Z:Devin McCabe
M:C|
L:1/8
K:EMin
e2ba be e/2e/2e|e2ba be e/2e/2e|gf (3efg fedb|c'3b bagf|
!e2ba be e/2e/2e|e2ba be e/2e/2e|gf (3efg fedf|1adfd efgf:|2adfd e2ce|
!:B~g3 gfed|B~g3 gf (3efg|faag fede|e/2e/2e de edcd|
!B~g3 gfed|B~g3 gfef|gabg abc'a|1bd'af e3d:|2bd'af efgf||
